images/logos/zopa.svg

<?xml version="1.0" encoding="UTF-8"?>
<svg width="180px" height="33px" viewBox="0 0 180 33" version="1.1" xmlns="http://www.w3.org/2000/svg" xmlns:xlink="http://www.w3.org/1999/xlink">
    <title>Group 6</title>
    <g id="Index" stroke="none" stroke-width="1" fill="none" fill-rule="evenodd">
        <g id="Group-6" fill="#000000" fill-rule="nonzero">
            <path d="M66.706525,0 C76.772391,0 83.96031,6.740156 84.186235,16.381655 C84.186235,20.986285 82.447041,25.195841 79.289292,28.234331 C76.095917,31.307329 71.626495,33 66.706525,33 C61.78612,33 57.317567,31.307329 54.123757,28.234331 C50.966009,25.195841 49.227248,20.986285 49.227248,16.381655 C49.227248,11.794278 50.96514,7.627636 54.120716,4.649757 C57.299319,1.651084 61.768741,0 66.706525,0 Z M66.706525,8.928772 C64.692743,8.928772 62.817124,9.710957 61.424204,11.130217 C60.048229,12.532665 59.290074,14.397876 59.290074,16.381655 C59.290074,18.365433 60.048229,20.231087 61.424204,21.633092 C62.817124,23.052795 64.692743,23.834538 66.706525,23.834538 C68.653832,23.834538 70.496431,23.083321 71.894999,21.719805 C73.331366,20.318685 74.122976,18.422946 74.122976,16.381655 C74.122976,14.397876 73.364821,12.532665 71.988411,11.130217 C70.595491,9.710957 68.719872,8.928772 66.706525,8.928772 Z" id="Combined-Shape" style="mix-blend-mode: overlay;"></path>
            <path d="M116.578785,0.809173 C120.457324,0.809173 123.647658,1.893968 125.804815,3.946763 C127.942422,5.980534 129.072486,8.972128 129.072486,12.597699 C129.072486,20.052482 124.411844,24.721107 116.885473,24.844279 L116.578785,24.846778 L111.182633,24.846778 L111.182633,32.190385 L101.852328,32.190385 L101.852328,0.809173 L116.578785,0.809173 Z M116.585737,8.918596 L111.182633,8.918596 L111.182633,16.989972 L116.585737,16.989972 C118.871064,16.989972 120.467751,15.304822 120.467751,12.891461 C120.467751,10.514821 118.90756,8.918596 116.585737,8.918596 Z" id="Combined-Shape" style="mix-blend-mode: overlay;"></path>
            <path d="M31.706523,0.809128 L31.706523,1.936396 C31.706523,7.873131 25.744253,13.707669 21.39127,17.96766 C19.833713,19.492155 18.474478,20.822027 17.555887,21.96663 L17.365879,22.209069 L16.889262,22.832429 L31.575313,22.828005 L31.566189,32.156275 L-5.68434189e-14,32.156275 L-5.68434189e-14,31.029008 C-5.68434189e-14,25.139611 5.48435,19.767837 9.891208,15.451217 C11.686633,13.691718 13.250822,12.15974 14.130128,10.873715 L14.27026,10.661658 L14.650424,10.065285 L1.018404,10.063516 L1.018404,0.809128 L31.706523,0.809128 Z" id="Combined-Shape-path" style="mix-blend-mode: overlay;"></path>
            <path d="M168.032446,0.686226 L180,32.077614 L170.256947,32.077614 L168.335708,27.038534 L155.306303,27.038534 L153.385063,32.077614 L143.642445,32.077614 L155.609565,0.686226 L168.032446,0.686226 Z M161.821223,9.949904 L158.103004,19.70289 L165.539441,19.70289 L161.821223,9.949904 Z" id="Combined-Shape" style="mix-blend-mode: overlay;"></path>
        </g>
    </g>
</svg>

<?xml version="1.0" encoding="utf-8"?>
<!-- Generator: Adobe Illustrator 24.0.0, SVG Export Plug-In . SVG Version: 6.00 Build 0)  -->
<svg version="1.1" id="Layer_1" xmlns="http://www.w3.org/2000/svg" xmlns:xlink="http://www.w3.org/1999/xlink" x="0px" y="0px"
	 viewBox="0 0 180 33" style="enable-background:new 0 0 180 33;" xml:space="preserve">
<title>Group 6</title>
<path id="Combined-Shape" d="M66.7,0C76.8,0,84,6.7,84.2,16.4c0,4.6-1.7,8.8-4.9,11.9c-3.2,3.1-7.7,4.8-12.6,4.8
	c-4.9,0-9.4-1.7-12.6-4.8c-3.2-3-4.9-7.2-4.9-11.9c0-4.6,1.7-8.8,4.9-11.7C57.3,1.7,61.8,0,66.7,0z M66.7,8.9c-2,0-3.9,0.8-5.3,2.2
	c-1.4,1.4-2.1,3.3-2.1,5.3s0.8,3.8,2.1,5.3c1.4,1.4,3.3,2.2,5.3,2.2c1.9,0,3.8-0.8,5.2-2.1c1.4-1.4,2.2-3.3,2.2-5.3
	c0-2-0.8-3.8-2.1-5.3C70.6,9.7,68.7,8.9,66.7,8.9z"/>
<path id="Combined-Shape_1_" d="M116.6,0.8c3.9,0,7.1,1.1,9.2,3.1c2.1,2,3.3,5,3.3,8.7c0,7.5-4.7,12.1-12.2,12.2l-0.3,0h-5.4v7.3
	h-9.3V0.8H116.6z M116.6,8.9h-5.4V17h5.4c2.3,0,3.9-1.7,3.9-4.1C120.5,10.5,118.9,8.9,116.6,8.9z"/>
<path id="Combined-Shape-path" d="M31.7,0.8v1.1c0,5.9-6,11.8-10.3,16c-1.6,1.5-2.9,2.9-3.8,4l-0.2,0.2l-0.5,0.6l14.7,0l0,9.3H0V31
	c0-5.9,5.5-11.3,9.9-15.6c1.8-1.8,3.4-3.3,4.2-4.6l0.1-0.2l0.4-0.6L1,10.1V0.8H31.7z"/>
<path id="Combined-Shape_2_" d="M168,0.7l12,31.4h-9.7l-1.9-5h-13l-1.9,5h-9.7l12-31.4H168z M161.8,9.9l-3.7,9.8h7.4L161.8,9.9z"/>
</svg>
